build/images/icons/step3.svg

<svg height="60" width="60" xmlns="http://www.w3.org/2000/svg"><path d="M36 36c0 3.309-2.691 6-6 6s-6-2.691-6-6a1 1 0 112 0c0 2.206 1.794 4 4 4s4-1.794 4-4-1.794-4-4-4a1.001 1.001 0 01-.923-1.385L33.5 20H25a1 1 0 110-2h10a1.001 1.001 0 01.923 1.385l-4.494 10.787A6.01 6.01 0 0136 36m-6 22C14.561 58 2 45.439 2 30S14.561 2 30 2s28 12.561 28 28-12.561 28-28 28m0-58C13.458 0 0 13.458 0 30s13.458 30 30 30 30-13.458 30-30S46.542 0 30 0" fill="#008fcb" fill-rule="evenodd"/></svg>

<?xml version="1.0" ?><svg height="60px" version="1.1" viewBox="0 0 60 60" width="60px" xmlns="http://www.w3.org/2000/svg" xmlns:xlink="http://www.w3.org/1999/xlink"><title/><desc/><defs/><g fill="none" fill-rule="evenodd" id="People" stroke="none" stroke-width="1"><g fill="#000000" id="Icon-73"><path d="M36,36 C36,39.309 33.309,42 30,42 C26.691,42 24,39.309 24,36 C24,35.447 24.448,35 25,35 C25.552,35 26,35.447 26,36 C26,38.206 27.794,40 30,40 C32.206,40 34,38.206 34,36 C34,33.794 32.206,32 30,32 C29.666,32 29.354,31.833 29.168,31.555 C28.982,31.276 28.948,30.924 29.077,30.615 L33.5,20 L25,20 C24.448,20 24,19.553 24,19 C24,18.447 24.448,18 25,18 L35,18 C35.334,18 35.646,18.167 35.832,18.445 C36.018,18.724 36.052,19.076 35.923,19.385 L31.429,30.172 C34.05,30.814 36,33.184 36,36 M30,58 C14.561,58 2,45.439 2,30 C2,14.561 14.561,2 30,2 C45.439,2 58,14.561 58,30 C58,45.439 45.439,58 30,58 M30,0 C13.458,0 0,13.458 0,30 C0,46.542 13.458,60 30,60 C46.542,60 60,46.542 60,30 C60,13.458 46.542,0 30,0" id="number-three" fill="#008fcb"/></g></g></svg>
